storage/app/icons/phosphoricons/bold/device-tablet-bold.svg

<svg xmlns="http://www.w3.org/2000/svg" fill="currentColor" viewBox="0 0 256 256"><path d="M192 20H64a28 28 0 0 0-28 28v160a28 28 0 0 0 28 28h128a28 28 0 0 0 28-28V48a28 28 0 0 0-28-28M60 84h136v88H60Zm4-40h128a4 4 0 0 1 4 4v12H60V48a4 4 0 0 1 4-4m128 168H64a4 4 0 0 1-4-4v-12h136v12a4 4 0 0 1-4 4"/></svg>

<svg xmlns="http://www.w3.org/2000/svg" viewBox="0 0 256 256" fill="currentColor"><path d="M192,20H64A28,28,0,0,0,36,48V208a28,28,0,0,0,28,28H192a28,28,0,0,0,28-28V48A28,28,0,0,0,192,20ZM60,84H196v88H60Zm4-40H192a4,4,0,0,1,4,4V60H60V48A4,4,0,0,1,64,44ZM192,212H64a4,4,0,0,1-4-4V196H196v12A4,4,0,0,1,192,212Z"/></svg>
